icon-svg/doube-window-r-open.svg

<svg xmlns="http://www.w3.org/2000/svg" fill="#44739e" viewBox="0 0 24 24"><path d="M11.946 6.739H6.712v10.184h5.234zM11.5 16.48H7.155v-9.3H11.5Zm5.33-9.695v10.082L22 18.4V5.6Zm4.727 11.025-.057-.018-4.227-1.256v-9.4l.035-.008 4.249-.976ZM17.701 7.13l-.339.078v9.262l.339.101zm-5.408 9.817V6.684h4.581l.827-.191v-.341H6.279v11.327H17.7v-.261l-.91-.271zm-.259.064h-5.41V6.651h5.41z"/></svg>

<?xml version="1.0" encoding="UTF-8"?>
<svg width="24px" fill="#44739e" height="24px" viewBox="0 0 24 24" version="1.1" xmlns="http://www.w3.org/2000/svg" xmlns:xlink="http://www.w3.org/1999/xlink">
            <path d="M 11.946,6.739 H 6.712 v 10.184 h 5.234 z M 11.5,16.48 H 7.155 V 7.18 H 11.5 Z M 16.83,6.785 V 16.867 L 22,18.4 V 5.6 Z M 21.557,17.81 21.5,17.792 17.273,16.536 v -9.4 L 17.308,7.128 21.557,6.152 Z M 17.701,7.13 17.362,7.208 v 9.262 l 0.339,0.101 z m -5.408,9.817 V 6.684 h 4.581 L 17.701,6.493 V 6.152 H 6.279 V 17.479 H 17.7 v -0.261 l -0.91,-0.271 z m -0.259,0.064 H 6.624 V 6.651 h 5.41 z"/>

</svg>
